public/frontend/assets/images/logo.svg

<svg width="33" height="32" viewBox="0 0 33 32" fill="none"
                                    xmlns="http://www.w3.org/2000/svg">
                                    <path
                                        d="M18.2324 8.46546C17.4611 7.84735 17.1121 7.3897 16.5393 6.58426C16.0719 5.92708 15.5046 4.79713 15.5046 4.79713C15.5046 4.79713 15.6691 5.95966 15.8809 6.67832C16.0814 7.35883 16.2058 7.74525 16.5393 8.3714C16.9831 9.20463 17.3946 9.573 17.9972 10.2996C19.2408 11.7991 20.1942 12.4038 21.5245 13.8269C22.2171 14.5679 22.6549 14.9445 23.2646 15.7551C23.776 16.4351 24.1106 16.805 24.4403 17.5893C24.7338 18.2874 24.9106 19.4705 24.9106 19.4705C24.9106 19.4705 24.9523 20.958 24.7225 21.869C24.4593 22.9126 23.5468 24.3616 23.5468 24.3616C23.5468 24.3616 22.515 25.7191 21.6656 26.3839C20.8367 27.0326 19.3141 27.7007 19.3141 27.7007C19.3141 27.7007 17.6108 28.4585 16.4452 28.5943C15.7155 28.6793 14.564 28.5943 14.564 28.5943C14.564 28.5943 13.0547 28.5306 12.1185 28.3121C11.1283 28.081 10.5898 27.858 9.67292 27.4185C8.40507 26.8109 7.71456 26.3765 6.663 25.4433C5.54086 24.4474 5.00176 23.7594 4.21744 22.4804C3.55154 21.3945 3.26281 20.7238 2.85357 19.5175C2.6331 18.8677 2.5123 18.4984 2.38327 17.8244C2.25475 17.1531 2.24193 16.7662 2.19515 16.0843C2.11344 14.8933 2.02824 14.2095 2.19515 13.0274C2.2712 12.4888 2.34002 12.1898 2.47733 11.6635C2.75465 10.6006 2.98125 10.016 3.46496 9.02982C3.92963 8.08242 4.21886 7.5511 4.87586 6.72535C5.54703 5.88179 5.99205 5.44834 6.85112 4.79713C7.48876 4.31376 7.87766 4.07747 8.59123 3.71544C8.86234 3.57788 8.93396 3.52852 9.20262 3.38623L10.0021 2.96296C10.0021 2.96296 9.62388 3.02862 9.39074 3.10405C8.94366 3.24869 8.68722 3.3889 8.27923 3.61196L8.26202 3.62138C7.47434 4.052 7.06195 4.31914 6.33379 4.84416C5.584 5.38477 4.54665 6.39614 4.54665 6.39614C4.54665 6.39614 3.47146 7.69415 2.9006 8.60655C2.2776 9.6023 1.9381 10.1834 1.53673 11.2873C1.09358 12.5061 0.99215 13.2455 0.831281 14.5323C0.733079 15.3179 0.682655 15.763 0.690191 16.5546C0.701293 17.7209 0.797364 18.3826 1.06643 19.5175C1.41656 20.9943 1.76188 21.8003 2.47733 23.1388C3.28954 24.6584 3.84276 25.4976 5.06398 26.7131C6.2383 27.8819 7.04261 28.4123 8.49717 29.2057C9.66802 29.8443 10.362 30.1698 11.6482 30.5225C12.548 30.7693 13.071 30.8552 13.9997 30.9458C15.1147 31.0545 15.7544 31.0636 16.8685 30.9458C17.256 30.9048 17.8561 30.8047 17.8561 30.8047C17.8561 30.8047 19.1948 30.4622 20.0195 30.1463C20.8329 29.8347 21.2913 29.6477 22.0418 29.2057C22.9565 28.667 23.4385 28.2939 24.2052 27.5596C24.9491 26.8472 25.3241 26.3925 25.8983 25.5373C26.3885 24.8072 26.6577 24.3804 26.9799 23.5621C27.3129 22.7166 27.4066 22.2029 27.5443 21.3046C27.6754 20.4497 27.719 19.9586 27.6854 19.0942C27.6537 18.2793 27.5939 17.8179 27.4032 17.0249C27.2403 16.3473 26.8389 15.3318 26.8389 15.3318L25.1458 16.2724L25.428 10.3937L30.7894 13.0274L29.8017 13.5917C29.8017 13.5917 30.5109 15.4545 30.7894 16.6957C30.9969 17.6209 31.0896 18.1492 31.1656 19.0942C31.2466 20.1011 31.2928 20.6788 31.1656 21.6809C31.0781 22.3706 30.7894 23.421 30.7894 23.421C30.7894 23.421 31.4203 22.3982 31.6829 21.6809C31.9926 20.8353 32.0333 20.3159 32.1532 19.4234C32.2782 18.4935 32.3007 17.9632 32.2943 17.0249C32.2848 15.6214 32.1958 14.8264 31.9181 13.4506C31.6915 12.3279 31.5316 11.6972 31.1186 10.6288C30.6417 9.3953 30.2701 8.73877 29.5666 7.61892C28.5732 6.03774 27.9345 5.16393 26.5567 3.90356C25.627 3.05315 25.0544 2.61694 23.97 1.97533C22.9091 1.34757 22.2755 1.03364 21.1012 0.658489C20.0478 0.321967 19.4256 0.215408 18.3264 0.094129C17.6318 0.0174787 17.2382 -0.0013079 16.5393 6.90938e-05C15.5814 0.00195635 14.0937 0.188189 14.0937 0.188189C14.0937 0.188189 15.8279 0.403094 16.9155 0.658489C18.0031 0.913883 18.9378 1.16965 20.1606 1.69315C20.9157 2.01641 21.3599 2.17586 22.0418 2.63375C22.7547 3.11246 23.1525 3.42026 23.6878 4.09168C24.114 4.62611 24.4087 4.93531 24.5814 5.59664C24.7392 6.20082 24.7128 6.58519 24.5814 7.19565C24.4499 7.80639 24.307 8.1608 23.923 8.65358C23.4872 9.21281 23.1358 9.50561 22.4651 9.73527C21.8733 9.93792 21.4808 9.94476 20.866 9.82933C20.4836 9.75752 20.2828 9.65432 19.9254 9.50012C19.214 9.1931 18.837 8.95006 18.2324 8.46546Z"
                                        fill="#05ACF0" />
                                </svg>

<svg xmlns="http://www.w3.org/2000/svg" width="33" height="32" fill="none" xmlns:v="https://vecta.io/nano"><path d="M18.232 8.465c-.771-.618-1.12-1.076-1.693-1.881-.467-.657-1.035-1.787-1.035-1.787s.165 1.163.376 1.881c.2.681.325 1.067.658 1.693.444.833.855 1.202 1.458 1.928 1.244 1.499 2.197 2.104 3.527 3.527.693.741 1.13 1.118 1.74 1.928.511.68.846 1.05 1.176 1.834.293.698.47 1.881.47 1.881s.042 1.487-.188 2.398c-.263 1.044-1.176 2.493-1.176 2.493s-1.032 1.358-1.881 2.022c-.829.649-2.352 1.317-2.352 1.317s-1.703.758-2.869.894c-.73.085-1.881 0-1.881 0s-1.509-.064-2.446-.282c-.99-.231-1.529-.454-2.446-.894-1.268-.608-1.958-1.042-3.01-1.975-1.122-.996-1.661-1.684-2.446-2.963-.666-1.086-.955-1.757-1.364-2.963-.22-.65-.341-1.019-.47-1.693s-.141-1.058-.188-1.74c-.082-1.191-.167-1.875 0-3.057a10.36 10.36 0 0 1 .282-1.364c.277-1.063.504-1.648.988-2.634.465-.947.754-1.479 1.411-2.304.671-.844 1.116-1.277 1.975-1.928a9.8 9.8 0 0 1 1.74-1.082l.611-.329.799-.423s-.378.066-.611.141c-.447.145-.704.285-1.112.508l-.017.009a15.59 15.59 0 0 0-1.928 1.223c-.75.541-1.787 1.552-1.787 1.552s-1.075 1.298-1.646 2.21c-.623.996-.962 1.577-1.364 2.681-.443 1.219-.545 1.958-.705 3.245-.098.786-.149 1.231-.141 2.022.011 1.166.107 1.828.376 2.963.35 1.477.695 2.283 1.411 3.621.812 1.52 1.365 2.359 2.587 3.574 1.174 1.169 1.979 1.699 3.433 2.493 1.171.639 1.865.964 3.151 1.317.9.247 1.423.333 2.352.423 1.115.109 1.755.118 2.869 0l.988-.141 2.163-.658c.813-.312 1.272-.499 2.022-.941.915-.539 1.397-.912 2.163-1.646.744-.712 1.119-1.167 1.693-2.022.49-.73.759-1.157 1.082-1.975.333-.846.427-1.359.564-2.258.131-.855.175-1.346.141-2.21-.032-.815-.091-1.276-.282-2.069-.163-.678-.564-1.693-.564-1.693l-1.693.941.282-5.879 5.361 2.634-.988.564s.709 1.863.988 3.104c.207.925.3 1.454.376 2.399.081 1.007.127 1.585 0 2.587-.088.69-.376 1.74-.376 1.74s.631-1.023.893-1.74c.31-.846.35-1.365.47-2.258.125-.93.148-1.46.141-2.399-.01-1.403-.099-2.198-.376-3.574-.227-1.123-.386-1.753-.799-2.822-.477-1.233-.849-1.89-1.552-3.01-.993-1.581-1.632-2.455-3.01-3.715-.93-.85-1.502-1.287-2.587-1.928-1.061-.628-1.694-.942-2.869-1.317-1.053-.337-1.676-.443-2.775-.564-.695-.077-1.088-.095-1.787-.094-.958.002-2.446.188-2.446.188l2.822.47c1.088.255 2.022.511 3.245 1.035.755.323 1.199.483 1.881.941.713.479 1.111.787 1.646 1.458.426.534.721.844.894 1.505.158.604.131.989 0 1.599s-.274.965-.658 1.458c-.436.559-.787.852-1.458 1.082-.592.203-.984.209-1.599.094-.382-.072-.583-.175-.941-.329a6.37 6.37 0 0 1-1.693-1.035z" fill="#05acf0"/></svg>
